X: 134009
Q: "Irish Reel."
M: C
L: 1/8
K: D
uA>uA |\
dfaf gfeg | fdAG FGA=c |\
dfaf gfeg | fdAG FGA=c |\
a2(fd) dfaf | dfaf bagf |\
gfge =cege | =cege agfe |\
a^gaf dfaf | dfaf bagf |\
gfgf gbag |[1 fdec defg :|[2 fgec d2 |]


